home/.icons/Gruvbox-Plus-Dark/emblems/24/vcs-locally-modified.svg

<svg width="24" height="24" version="1.1" xmlns="http://www.w3.org/2000/svg">
  <circle cx="12" cy="12" r="10" fill="#b16286"/>
  <path d="m13 7v2h-3.1602c-1.3718 1e-4 -2.6394 0.7736-3.3253 1.953-0.686 1.18-0.686 2.97 0 4.15 0.653 1.119 1.8329 1.833 3.1341 1.897-0.9815-0.098-1.6487-0.618-1.6486-1.597 0-1.053 0.7794-1.403 1.8398-1.403h3.1602v1.579l5-4.079z" fill="#ebdbb2"/>
</svg>

<svg xmlns="http://www.w3.org/2000/svg" width="24" height="24" version="1.1" viewBox="0 0 24 24">
 <circle style="fill:#d3869b" cx="12" cy="12" r="10"/>
 <path style="fill:#ebdbb2" d="M 13,7 V 9 H 9.8398 C 8.468,9.0001 7.2004,9.7736 6.5145,10.953 5.8285,12.133 5.8285,13.923 6.5145,15.103 7.1675,16.222 8.3474,16.936 9.6486,17 8.6671,16.902 7.9999,16.382 8,15.403 8,14.35 8.7794,14 9.8398,14 H 13 V 15.579 L 18,11.5 Z"/>
</svg>
